X:353
T: VON ALLEN DEN MAEDCHEN
N: B0420
O: Europa, Mitteleuropa, Deutschland
R: Liebes - Lied, Liebes - Lust, Staende - Lied
M: 6/8
L: 1/16
K: D
A,2 | F3FF2B3AA2 | A2G2E2C2z2
A,2 | F2F2F2G3AB2 | D6C2z2
A,2 | F3FF2B3AA2 | A2G2E2C2z2
A2 | d2A2F2A2G2C2 | E6D2z2
F2 | E3EE2E2F2^G2 | A3AA2c2B2
A2 | B3BB2d2B2^G2 | B6A2z2
G2 | F2F2F2B3AA2 | A2G2E2C2z2
A2 | d2A2F2A2G2C2 | E6D2z2

